X:1
T:Title
%%score 1 ( 2 3 )
L:1/8
Q:1/4=80
M:4/4
K:Eb
V:1 treble nm="Strings 1, Treble"
V:2 bass nm="Strings 1, Bass"
V:3 bass 
V:1
 z4 z2 [GB][GB] | [_G=A][=GB][_Ac][EG] [EB]2 [GB][GB] | %2
 [Ac]2 [Ad]2 [Ge]2[Q:1/4=80] [B,E][B,E][Q:1/4=12] | [B,D][CE][DF][EG] [FA][GB][Ac][Ad] | %4
 [Ge]2 [EG]2 [EB]2 [GB][GB] | [_G=A][=GB][_Ac][EG] [EB][Ge][Bf][Ge] | [Fd]2 [=Ac]2 B2 B[_AB] | %7
 [GB]2 [GB]2 [EG]2 [EG]2 | [Ge][Ge][Ge][Ge] [EB]2 [EB]2 | [EG][EG][EG][B,F] [B,E][B,D][EG][B,F] | %10
 [B,E]2 [EG]2 [GB]2 [GB][GB] | [GB]2 [GB]2 [EG]2 [EG]2 | [Ge][Ge][Ge][Ge] [EB]2 [EB]2 | %13
 [EG][EG][EG][B,F] [B,E][B,D][EG][B,F][Q:1/4=79][Q:1/4=78][Q:1/4=76][Q:1/4=75][Q:1/4=74][Q:1/4=73][Q:1/4=72][Q:1/4=71][Q:1/4=69][Q:1/4=68][Q:1/4=67][Q:1/4=66][Q:1/4=65][Q:1/4=64][Q:1/4=62][Q:1/4=61][Q:1/4=60] | %14
 [B,E]6 z2 |] %15
V:2
 z4 z2 [E,B,][E,B,] | [E,E][E,E][E,E][E,B,] [E,G,]2 [E,E][E,E] | %2
w: 1.~Safe ly~|hid ing,~ should~ I~ fear,~ When~ the~|
 [A,E]2 [F,B,]2 [E,B,]2 [E,G,][E,G,] | [B,,B,][B,,B,][B,,B,][B,,B,] [B,,B,][B,,B,][B,,B,][B,,B,] | %4
w: Lord~ is~ near?~ I~ am~|hid ing,~ safe ly~ hid ing~ When~ the~|
 [E,B,]2 [E,B,]2 [E,G,]2 [E,B,][E,B,] | [E,E][E,E][E,E][E,B,] [E,G,][E,B,][D,B,][E,B,] | z4 D2 z2 | %7
w: storm~ clouds~ fly,~ I~ am~|hid ing~ in~ His~ pres ence,~ 'Neath~ His~|eye.~|
 [E,E][E,E][E,E][E,E] [E,B,]2 [E,B,]2 | [E,B,][E,B,][E,B,][E,B,] [E,G,]2 [E,G,]2 | %9
w: ||
 [B,,B,][B,,B,][B,,B,][B,,A,] [B,,G,][B,,F,][B,,B,][B,,A,] | E,2- [E,-B,]2 [E,E]2 z2 | %11
w: ||
 [E,E][E,E][E,E][E,E] [E,B,]2 [E,B,]2 | [E,B,][E,B,][E,B,][E,B,] [E,G,]2 [E,G,]2 | %13
w: ||
 [B,,B,][B,,B,][B,,B,][B,,A,] [B,,G,][B,,F,][B,,B,][B,,A,] | [E,G,]6 z2 |] %15
w: ||
V:3
 x8 | x8 | x8 | x8 | x8 | x8 | [F,B,]2 [F,E]2 B,A,[G,E][F,D] | x8 | x8 | x8 | G,2 z2 z4 | x8 | x8 | %13
w: ||||||* ful~ * * * *|||||||
 x8 | x8 |] %15
w: ||

